svg/progress_star_four_points.svg

<svg xmlns="http://www.w3.org/2000/svg" viewBox="0 0 24 24"><path d="M13 4V2c4.66.5 8.33 4.19 8.85 8.85.6 5.49-3.35 10.43-8.85 11.03v-2c3.64-.45 6.5-3.32 6.96-6.96A7.994 7.994 0 0 0 13 4m-7.33.2A9.8 9.8 0 0 1 11 2v2.06c-1.43.2-2.78.78-3.9 1.68zM2.05 11a9.8 9.8 0 0 1 2.21-5.33L5.69 7.1A8 8 0 0 0 4.05 11zm2.22 7.33A10.04 10.04 0 0 1 2.06 13h2c.18 1.42.75 2.77 1.63 3.9zm1.4 1.41 1.39-1.37h.04c1.13.88 2.48 1.45 3.9 1.63v2c-1.96-.21-3.82-1-5.33-2.26M12 17l1.56-3.42L17 12l-3.44-1.56L12 7l-1.57 3.44L7 12l3.43 1.58z"/></svg>

<svg xmlns="http://www.w3.org/2000/svg" id="mdi-progress-star-four-points" viewBox="0 0 24 24"><path d="M13 4V2C17.66 2.5 21.33 6.19 21.85 10.85C22.45 16.34 18.5 21.28 13 21.88V19.88C16.64 19.43 19.5 16.56 19.96 12.92C20.5 8.53 17.39 4.54 13 4M5.67 4.2C7.19 2.95 9.04 2.18 11 2V4.06C9.57 4.26 8.22 4.84 7.1 5.74L5.67 4.2M2.05 11C2.24 9.04 3 7.19 4.26 5.67L5.69 7.1C4.8 8.23 4.24 9.58 4.05 11H2.05M4.27 18.33C3.03 16.81 2.26 14.96 2.06 13H4.06C4.24 14.42 4.81 15.77 5.69 16.9L4.27 18.33M5.67 19.74L7.06 18.37H7.1C8.23 19.25 9.58 19.82 11 20V22C9.04 21.79 7.18 21 5.67 19.74M12 17L13.56 13.58L17 12L13.56 10.44L12 7L10.43 10.44L7 12L10.43 13.58L12 17Z" /></svg>
